packages/ui/public/icons/media-quiz.svg

<svg width="20" height="20" viewBox="0 0 20 20" fill="none" xmlns="http://www.w3.org/2000/svg">
<path opacity="0.4" d="M2.5 6.5C2.5 5.09987 2.5 4.3998 2.77248 3.86503C3.01217 3.39462 3.39462 3.01217 3.86503 2.77248C4.3998 2.5 5.09987 2.5 6.5 2.5H13.5C14.9002 2.5 15.6002 2.5 16.135 2.77248C16.6054 3.01217 16.9878 3.39462 17.2275 3.86503C17.5 4.3998 17.5 5.09987 17.5 6.5V11.25C17.5 12.4148 17.5 12.9972 17.3097 13.4567C17.056 14.0692 16.5692 14.556 15.9567 14.8097C15.4972 15 14.9148 15 13.75 15C13.3428 15 13.1392 15 12.9504 15.0446C12.6986 15.104 12.4641 15.2213 12.2654 15.3871C12.1164 15.5114 11.9943 15.6743 11.75 16L10.5333 17.6222C10.3524 17.8635 10.2619 17.9841 10.151 18.0272C10.0539 18.065 9.94608 18.065 9.849 18.0272C9.73808 17.9841 9.64758 17.8635 9.46667 17.6222L8.25 16C8.00571 15.6743 7.88357 15.5114 7.73458 15.3871C7.53593 15.2213 7.30141 15.104 7.04959 15.0446C6.86072 15 6.65715 15 6.25 15C5.08515 15 4.50272 15 4.04329 14.8097C3.43073 14.556 2.94403 14.0692 2.6903 13.4567C2.5 12.9972 2.5 12.4148 2.5 11.25V6.5Z" stroke="#BF7AF0" stroke-width="2" stroke-linecap="round" stroke-linejoin="round"/>
<path d="M8.33337 7.08487C8.48021 6.66747 8.77004 6.31552 9.15146 6.09132C9.53296 5.86713 9.98146 5.78517 10.4175 5.85998C10.8536 5.93478 11.2492 6.16152 11.5341 6.50002C11.8191 6.83852 11.975 7.26693 11.9744 7.70941C11.9744 8.95851 10.1008 9.58301 10.1008 9.58301M10.125 12.083H10.1333" stroke="#BF7AF0" stroke-width="2" stroke-linecap="round" stroke-linejoin="round"/>
</svg>

<svg width="20" height="20" fill="none" xmlns="http://www.w3.org/2000/svg"><path opacity=".4" d="M2.5 6.5c0-1.4 0-2.1.272-2.635a2.5 2.5 0 0 1 1.093-1.093C4.4 2.5 5.1 2.5 6.5 2.5h7c1.4 0 2.1 0 2.635.272a2.5 2.5 0 0 1 1.092 1.093C17.5 4.4 17.5 5.1 17.5 6.5v4.75c0 1.165 0 1.747-.19 2.207a2.5 2.5 0 0 1-1.353 1.353c-.46.19-1.042.19-2.207.19-.407 0-.61 0-.8.045-.251.059-.486.176-.685.342-.149.124-.27.287-.515.613l-1.217 1.622c-.18.241-.271.362-.382.405a.416.416 0 0 1-.302 0c-.11-.043-.201-.164-.382-.405L8.25 16c-.244-.326-.366-.489-.515-.613a1.666 1.666 0 0 0-.685-.342C6.86 15 6.657 15 6.25 15c-1.165 0-1.747 0-2.207-.19a2.5 2.5 0 0 1-1.353-1.353c-.19-.46-.19-1.042-.19-2.207V6.5Z" stroke="#BF7AF0" stroke-width="2" stroke-linecap="round" stroke-linejoin="round"/><path d="M8.333 7.085a1.874 1.874 0 0 1 3.641.624c0 1.25-1.873 1.874-1.873 1.874m.024 2.5h.008" stroke="#BF7AF0" stroke-width="2" stroke-linecap="round" stroke-linejoin="round"/></svg>
